svg/u1f957.svg

<svg viewBox="0 0 128 128" xmlns="http://www.w3.org/2000/svg">
  <path d="M63.87,43.71c0,0-58.55,5.95-58.31,11.7c0.19,4.6-1.1,20.34,12.08,36.44 c8.64,10.55,23.78,20.72,48.53,20.72c24.34,0,37.71-11.24,46.04-23.4c10.7-15.64,10.17-30.31,10.17-33.95 C122.37,47.93,76.72,40.84,63.87,43.71z" fill="#D5D5D5"/>
  <path d="M66.9,30.59c0,0-3.95-2.59-7.56-2.26c-3.61,0.34-5.3,2.48-5.3,2.48L42.73,58.95l12.03,13.42 l7.85,5.44l15.19-0.38l6.71-46.71L66.9,30.59z" fill="#307D31"/>
  <path d="M67.66,37.46c0,0-2.75-4.63-3.08-8.59s2.77-6.24,4.42-6.24c4.04,0,4.5,2.5,6.92,2.28 c2.42-0.22,3.2-2.36,3.85-5.62c0.66-3.32,3.51-5.19,6.1-3.54c2.49,1.59,1.61,6.29,1.61,6.29s1.98-2.42,4.19-0.66 c1.96,1.57,1.32,6.39,1.32,6.39s4.3-4.96,7.93-2.53s0.88,10.79,0.88,10.79l-1.21,7.49l-20.7-7.93c0,0-1.21-2.86-5.62-2.53 C69.87,33.39,67.66,37.46,67.66,37.46z" fill="#58A12F"/>
  <path d="M45.53,57.29c0,0,3.7-7.51,11.75-5c8.44,2.63,6.91,10.76,6.91,10.76s2.16-1.58,4.69-1.8 s5.62,0.22,5.62,0.22l-0.4-4.36c0,0-5.37,0.71-8.63-3.13c-4.38-5.17-1.43-11.12-1.43-11.12l0.77-3.74l-7.71-4.96l-5.29-6.83 c0,0-1.76-3.85-6.5-4.07c-4.74-0.22-6.97,3.12-6.97,3.12s-10.15-2.93-15.33,1.47c-3.5,2.98-2.59,7.86-2.59,7.86 s-2.46,1.46-6.71-2.11c-1.89-1.59-5.59-0.38-6.14,2.6c-0.55,2.97,0.63,6.68,0.63,6.68l-3.41,2.09l11.56,11.89L45.53,57.29z" fill="#58A12F"/>
  <path d="M71.19,54.64c0,0-4.69,0.27-8.26-8.04c-2.14-4.98-0.64-14.64,4.41-13.66 c3.96,0.77,3.41,7.49,6.17,8.04c1.37,0.27,4.41-6.94,10.9-7.38c5.28-0.36,12.22,6.61,12.22,6.61s3.08-2.2,3.41-2.97 s0.88-3.74,4.3-3.52c3.79,0.24,3.3,4.41,3.3,4.41s4.52-1.76,7.82-0.11c3.55,1.78,3.3,5.18,3.3,5.18s3.19-3.41,5.73-1.65 s-4.62,15.81-11.45,22.86s-15.67,6.58-15.67,6.58L71.19,54.64z" fill="#86C82C"/>
  <path d="M27.92,32.02l-0.83-1.61c0,0,2.53-3.27,8.17-2.37c6.19,0.99,6.81,5.3,6.81,5.3s-3.19,1.21-3.29,1.06 c-0.1-0.15-3.09-3.29-3.09-3.29l-5.92,0.2L27.92,32.02z" fill="#D2608C"/>
  <path d="M28.51,33.24c0,0,2.88-1.36,5.71-0.75s3.49,2.88,3.49,2.88l2.63-1.06c0,0-1.66-3.56-5.57-4.25 c-4.29-0.76-6.93,1.83-6.93,1.83L28.51,33.24z" fill="#FFFFFF"/>
  <path d="M27.58,37.38c0,0,9.2-2.61,12.72-4.35c5.64-2.79,10.54-5.3,11.97-6.26c0.76-0.51,1.29-1.09,2.31-0.88 s10.19,18.45-4.76,25.09c-6.05,2.69-12.55,3.6-12.55,3.6l-9.34-7.89L27.58,37.38z" fill="#FE2A19"/>
  <path d="M30.77,40.03c-0.22,0.65,4.7,10.02,15.03,6.19c9.72-3.6,6.53-15.1,5.92-15.51 c-0.4-0.26-5.01,2.29-9.99,4.51C36.53,37.53,30.95,39.51,30.77,40.03z" fill="#CB1C35"/>
  <path d="M38.15,41.86c1.7,0.67,3.95-0.03,6.22-1.01c2.09-0.9,4.67-2.3,4.74-3.81c0.07-1.5-3.6-3.18-4.56-3.15 c-0.95,0.04-5.23,1.92-5.8,2.83C38.18,37.64,36.91,41.37,38.15,41.86z" fill="#FF5F5D"/>
  <path d="M37,41.82c-0.96-0.25-1.84,0.7-2.08,1.81c-0.31,1.45,1.09,1.76,1.73,1.23 C37.64,44.04,37.91,42.05,37,41.82z" fill="#F7CA76"/>
  <path d="M42.16,42.6c-0.95,0.03-1.31,1.55-0.98,2.64c0.42,1.43,1.85,1.05,2.1,0.26 C43.74,44.1,43.1,42.57,42.16,42.6z" fill="#F7CA76"/>
  <path d="M47.29,40.07c-0.69,0.61-0.02,1.97,0.9,2.58c1.2,0.8,2.03-0.36,1.73-1.11 C49.39,40.21,47.97,39.47,47.29,40.07z" fill="#F7CA76"/>
  <path d="M49.13,35.71c0.05,0.89,1.46,1.25,2.45,0.96c1.3-0.38,0.91-1.73,0.18-1.98 C50.46,34.24,49.08,34.83,49.13,35.71z" fill="#F7CA76"/>
  <path d="M47.76,59.21c0.91-2.46,5.68-6.4,10.72-2.77c4.91,3.54,2.66,9.36,0.56,11.27 c-2.28,2.08-6.82,2.69-9.37-0.13S46.54,62.5,47.76,59.21z" fill="#E9FCAE"/>
  <path d="M18.32,62.6c0.26-0.32,0.91-1.14,0.51-2.58c-0.67-2.41-2.37-5.38-5.62-9.21 c-5.67-6.68-8.48-8.42-10.28-6.52c-1.91,2.02,0.79,6.74,4.38,11.07S16.69,64.62,18.32,62.6z" fill="#307D31"/>
  <path d="M16.41,58.5c-0.55,0.45-3.54-1.63-6.63-5.28c-3.09-3.65-5.36-6.72-4.38-7.47 c1.24-0.95,5.73,3.76,6.91,5.39C13.49,52.77,17.64,57.49,16.41,58.5z" fill="#E9FCAE"/>
  <path d="M81.34,39.45l1.69-1.63c0,0,5.47,7.27,9.77,4.04c5.17-3.88,0.06-10.17,0.06-10.17l2.25-1.12 l2.98,4.61l0.22,6.52l-5.11,4.44c0,0-5.62,0-6.07-0.67C86.68,44.79,81.34,39.45,81.34,39.45z" fill="#FFFFFF"/>
  <path d="M79.6,40.97l2.23-1.98c0,0,6.31,8.95,12.61,4.3c6.04-4.47,0.49-12.62,0.49-12.62l2.23-1.31 c0,0,4.42,4.99,2.67,11.52c-1.41,5.24-6.64,7.69-10.91,6.79C82.22,46.25,79.6,40.97,79.6,40.97z" fill="#D2608C"/>
  <path d="M88.92,52.48c0,0,0.18-4.16,6-8.8c5.82-4.64,10.71-3.37,12.34-1.98c1.64,1.4,3.59,6.54-0.84,12.12 c-2.12,2.66-3.76,3.04-6.07,2.83c-2.7-0.25-7.39-2.59-7.39-2.59L88.92,52.48z" fill="#2C7B2E"/>
  <path d="M105.05,43.55c-2.43-1.61-7.44,0.94-10.02,3.35c-2.75,2.58-3.51,5.5-3.51,5.5l6.01,2.12 c0,0,3.38-0.08,5.64-2.66C106.54,48.02,106.87,44.76,105.05,43.55z" fill="#E0FEAC"/>
  <path d="M72.43,45.73c-0.84,0.42-3.98,4.1-3.05,11.42c0.97,7.57,6.38,12.55,15.34,13.2 c11.47,0.82,17.92-7.58,18.8-9.1s2.64-4.86,1.41-5.97c-1.23-1.11-8.9-1.58-17.74-4.33C77.26,47.85,74.3,44.79,72.43,45.73z" fill="#FE2A19"/>
  <path d="M76.4,49.99c-1.25,0.62-2.48,11.73,7.33,14.98c8.45,2.8,14.73-6.5,14.09-7.74s-4.45-0.82-10.74-3.05 C80.78,51.94,77.38,49.51,76.4,49.99z" fill="#CB1C35"/>
  <path d="M80.68,55.89c0.29,1.47,1.66,3.26,4.77,4.59c2.47,1.06,5.12,0.59,6.24,0.12 c1.12-0.47,0.69-4.93,0.18-5.06c-1.59-0.41-6.41-2.06-7.88-2.65C83.04,52.51,80.37,54.31,80.68,55.89z" fill="#FE6261"/>
  <path d="M80.12,56c-0.05-0.92-1.54-1.23-2.58-0.89c-1.37,0.44-0.97,1.81-0.2,2.04 C78.71,57.57,80.17,56.91,80.12,56z" fill="#F7CA76"/>
  <path d="M83.13,59.84c-0.72-0.57-1.94,0.34-2.37,1.35c-0.57,1.32,0.72,1.93,1.4,1.5 C83.38,61.93,83.84,60.4,83.13,59.84z" fill="#F7CA76"/>
  <path d="M68.86,76.25c0,0,0.27-1.81-1.05-4.43c-0.57-1.13-2.82-3.38-1.13-5.32c1.69-1.93,7.41-0.72,9.26-0.32 c1.85,0.4,4.83,0.32,5.96-0.81c1.13-1.13,1.93-5.8,6.04-6.93c4.24-1.16,6.24,2.58,7.97,4.11c1.37,1.21,3.38,1.69,6.2,0.72 c2.82-0.97,2.01,2.74,2.01,2.74l-3.3,7.33L68.86,76.25z" fill="#86C82C"/>
  <path d="M17.89,65.95c0,0-2.98-5.72-4.91-14.5s-1.78-11.66,0.24-12.32c3.46-1.13,5.8,3.06,7.01,2.82 s1.45-5.32,4.99-6.12c3.54-0.81,4.91,2.42,6.68,5.32s5.07,10.63,5.07,10.63s3.14-1.45,5.88,0c2.74,1.45,5.4,5.8,6.52,8.86 c1.13,3.06,2.23,5.75,2.23,5.75s3.87,0.73,7.43,2.87c4.03,2.42,5.96,7.17,5.96,7.17L45.19,77.7c0,0-24-8.62-24.24-9.02 C20.7,68.28,17.64,65.62,17.89,65.95z" fill="#86C82C"/>
  <path d="M21.03,69.09c0,0-1.21-2.9-0.81-6.6c0.4-3.7,2.13-6.06,5.03-6.06c2.26,0,6.16,1.47,9.95,6.78 s4.27,10.15,4.27,10.15l-16.03-2.09L21.03,69.09z" fill="#2D792A"/>
  <path d="M22.07,68.04c0,0-1.57-6.39,0.4-7.89c1.37-1.05,3.46-0.72,7.25,3.46c4.32,4.78,5.23,8.94,5.23,8.94 L22.07,68.04z" fill="#E7FCAE"/>
  <path d="M41.51,74.12l1.85,0.16c0,0,1.05-4.91,5.15-6.93c3.95-1.93,8.13-0.32,8.13-0.32l0.64-2.34l-4.35-1.77 l-5.88,1.21c0,0-5.32,4.83-5.32,5.07S41.51,73.88,41.51,74.12z" fill="#FFFFFF"/>
  <path d="M38.3,74.83c0-0.24,0.49-7,6.2-10.79c7.25-4.81,13.25-0.72,13.25-0.72L57,65.63 c0,0-6.24-2.73-11.05,1.39c-3.95,3.38-4.83,8.46-4.83,8.46L38.3,74.83z" fill="#D2608C"/>
  <path d="M67.45,108.67c34.77-0.11,46.57-28.2,49.38-38.6c1.84-6.81,2.5-13,2.5-13l-12.2,13.74 c0,0-38.26,7.34-39.54,7.34s-22.42-1.7-22.42-1.7l-21.72-5.19L8.56,56.84c0,0,0.28,8.97,2.69,15.78 C13.11,77.87,23.88,108.81,67.45,108.67z" fill="#F6F6F6"/>
  <path d="M64.04,80.43c16.6,0.21,40.86-4.11,49.95-13.2c5.82-5.82,5.39-11.07,5.39-11.07 s-10.5,19.83-55.49,19.16C25.73,74.75,8.53,56.79,8.53,56.79s1.02,6.18,5.7,10.02C25.3,75.86,41.9,80.14,64.04,80.43z" fill="#FFFFFF"/>
  <path d="M20.46,78.82c-1.95,1.83,0.16,6.48,4.92,10.67c4.76,4.19,9.52,7.55,11.9,5.17 c2.47-2.47-3.36-8.37-6.65-11.24S23,76.44,20.46,78.82z" fill="#FFFFFF"/>
</svg>

<svg viewBox="0 0 128 128" xmlns="http://www.w3.org/2000/svg">
  <defs/>
  <path d="M63.87,43.71 C63.87,43.71 5.32,49.66 5.56,55.41 C5.75,60.01 4.46,75.75 17.64,91.85 C26.28,102.4 41.42,112.57 66.17,112.57 C90.51,112.57 103.88,101.33 112.21,89.17 C122.91,73.53 122.38,58.86 122.38,55.22 C122.37,47.93 76.72,40.84 63.87,43.71 Z" fill="#D5D5D5"/>
  <path d="M66.9,30.59 C66.9,30.59 62.95,28 59.34,28.33 C55.73,28.67 54.04,30.81 54.04,30.81 L42.73,58.95 L54.76,72.37 L62.61,77.81 L77.8,77.43 L84.51,30.72 L66.9,30.59 Z" fill="#307D31"/>
  <path d="M67.66,37.46 C67.66,37.46 64.91,32.83 64.58,28.87 C64.25,24.91 67.35,22.63 69,22.63 C73.04,22.63 73.5,25.13 75.92,24.91 C78.34,24.69 79.12,22.55 79.77,19.29 C80.43,15.97 83.28,14.1 85.87,15.75 C88.36,17.34 87.48,22.04 87.48,22.04 C87.48,22.04 89.46,19.62 91.67,21.38 C93.63,22.95 92.99,27.77 92.99,27.77 C92.99,27.77 97.29,22.81 100.92,25.24 C104.55,27.67 101.8,36.03 101.8,36.03 L100.59,43.52 L79.89,35.59 C79.89,35.59 78.68,32.73 74.27,33.06 C69.87,33.39 67.66,37.46 67.66,37.46 Z" fill="#58A12F"/>
  <path d="M45.53,57.29 C45.53,57.29 49.23,49.78 57.28,52.29 C65.72,54.92 64.19,63.05 64.19,63.05 C64.19,63.05 66.35,61.47 68.88,61.25 C71.41,61.03 74.5,61.47 74.5,61.47 L74.1,57.11 C74.1,57.11 68.73,57.82 65.47,53.98 C61.09,48.81 64.04,42.86 64.04,42.86 L64.81,39.12 L57.1,34.16 L51.81,27.33 C51.81,27.33 50.05,23.48 45.31,23.26 C40.57,23.04 38.34,26.38 38.34,26.38 C38.34,26.38 28.19,23.45 23.01,27.85 C19.51,30.83 20.42,35.71 20.42,35.71 C20.42,35.71 17.96,37.17 13.71,33.6 C11.82,32.01 8.12,33.22 7.57,36.2 C7.02,39.17 8.2,42.88 8.2,42.88 L4.79,44.97 L16.35,56.86 L45.53,57.29 Z" fill="#58A12F"/>
  <path d="M71.19,54.64 C71.19,54.64 66.5,54.91 62.93,46.6 C60.79,41.62 62.29,31.96 67.34,32.94 C71.3,33.71 70.75,40.43 73.51,40.98 C74.88,41.25 77.92,34.04 84.41,33.6 C89.69,33.24 96.63,40.21 96.63,40.21 C96.63,40.21 99.71,38.01 100.04,37.24 C100.37,36.47 100.92,33.5 104.34,33.72 C108.13,33.96 107.64,38.13 107.64,38.13 C107.64,38.13 112.16,36.37 115.46,38.02 C119.01,39.8 118.76,43.2 118.76,43.2 C118.76,43.2 121.95,39.79 124.49,41.55 C127.03,43.31 119.87,57.36 113.04,64.41 C106.21,71.46 97.37,70.99 97.37,70.99 L71.19,54.64 Z" fill="#86C82C"/>
  <path d="M27.92,32.02 L27.09,30.41 C27.09,30.41 29.62,27.14 35.26,28.04 C41.45,29.03 42.07,33.34 42.07,33.34 C42.07,33.34 38.88,34.55 38.78,34.4 C38.68,34.25 35.69,31.11 35.69,31.11 L29.77,31.31 L27.92,32.02 Z" fill="#D2608C"/>
  <path d="M28.51,33.24 C28.51,33.24 31.39,31.88 34.22,32.49 C37.05,33.1 37.71,35.37 37.71,35.37 L40.34,34.31 C40.34,34.31 38.68,30.75 34.77,30.06 C30.48,29.3 27.84,31.89 27.84,31.89 L28.51,33.24 Z" fill="#FFFFFF"/>
  <path d="M27.58,37.38 C27.58,37.38 36.78,34.77 40.3,33.03 C45.94,30.24 50.84,27.73 52.27,26.77 C53.03,26.26 53.56,25.68 54.58,25.89 C55.6,26.1 64.77,44.34 49.82,50.98 C43.77,53.67 37.27,54.58 37.27,54.58 L27.93,46.69 L27.58,37.38 Z" fill="#FE2A19"/>
  <path d="M30.77,40.03 C30.55,40.68 35.47,50.05 45.8,46.22 C55.52,42.62 52.33,31.12 51.72,30.71 C51.32,30.45 46.71,33 41.73,35.22 C36.53,37.53 30.95,39.51 30.77,40.03 Z" fill="#CB1C35"/>
  <path d="M38.15,41.86 C39.85,42.53 42.1,41.83 44.37,40.85 C46.46,39.95 49.04,38.55 49.11,37.04 C49.18,35.54 45.51,33.86 44.55,33.89 C43.6,33.93 39.32,35.81 38.75,36.72 C38.18,37.64 36.91,41.37 38.15,41.86 Z" fill="#FF5F5D"/>
  <path d="M37,41.82 C36.04,41.57 35.16,42.52 34.92,43.63 C34.61,45.08 36.01,45.39 36.65,44.86 C37.64,44.04 37.91,42.05 37,41.82 Z" fill="#F7CA76"/>
  <path d="M42.16,42.6 C41.21,42.63 40.85,44.15 41.18,45.24 C41.6,46.67 43.03,46.29 43.28,45.5 C43.74,44.1 43.1,42.57 42.16,42.6 Z" fill="#F7CA76"/>
  <path d="M47.29,40.07 C46.6,40.68 47.27,42.04 48.19,42.65 C49.39,43.45 50.22,42.29 49.92,41.54 C49.39,40.21 47.97,39.47 47.29,40.07 Z" fill="#F7CA76"/>
  <path d="M49.13,35.71 C49.18,36.6 50.59,36.96 51.58,36.67 C52.88,36.29 52.49,34.94 51.76,34.69 C50.46,34.24 49.08,34.83 49.13,35.71 Z" fill="#F7CA76"/>
  <path d="M47.76,59.21 C48.67,56.75 53.44,52.81 58.48,56.44 C63.39,59.98 61.14,65.8 59.04,67.71 C56.76,69.79 52.22,70.4 49.67,67.58 C47.12,64.76 46.54,62.5 47.76,59.21 Z" fill="#E9FCAE"/>
  <path d="M18.32,62.6 C18.58,62.28 19.23,61.46 18.83,60.02 C18.16,57.61 16.46,54.64 13.21,50.81 C7.54,44.13 4.73,42.39 2.93,44.29 C1.02,46.31 3.72,51.03 7.31,55.36 C10.9,59.69 16.69,64.62 18.32,62.6 Z" fill="#307D31"/>
  <path d="M16.41,58.5 C15.86,58.95 12.87,56.87 9.78,53.22 C6.69,49.57 4.42,46.5 5.4,45.75 C6.64,44.8 11.13,49.51 12.31,51.14 C13.49,52.77 17.64,57.49 16.41,58.5 Z" fill="#E9FCAE"/>
  <path d="M81.34,39.45 L83.03,37.82 C83.03,37.82 88.5,45.09 92.8,41.86 C97.97,37.98 92.86,31.69 92.86,31.69 L95.11,30.57 L98.09,35.18 L98.31,41.7 L93.2,46.14 C93.2,46.14 87.58,46.14 87.13,45.47 C86.68,44.79 81.34,39.45 81.34,39.45 Z" fill="#FFFFFF"/>
  <path d="M79.6,40.97 L81.83,38.99 C81.83,38.99 88.14,47.94 94.44,43.29 C100.48,38.82 94.93,30.67 94.93,30.67 L97.16,29.36 C97.16,29.36 101.58,34.35 99.83,40.88 C98.42,46.12 93.19,48.57 88.92,47.67 C82.22,46.25 79.6,40.97 79.6,40.97 Z" fill="#D2608C"/>
  <path d="M88.92,52.48 C88.92,52.48 89.1,48.32 94.92,43.68 C100.74,39.04 105.63,40.31 107.26,41.7 C108.9,43.1 110.85,48.24 106.42,53.82 C104.3,56.48 102.66,56.86 100.35,56.65 C97.65,56.4 92.96,54.06 92.96,54.06 L88.92,52.48 Z" fill="#2C7B2E"/>
  <path d="M105.05,43.55 C102.62,41.94 97.61,44.49 95.03,46.9 C92.28,49.48 91.52,52.4 91.52,52.4 L97.53,54.52 C97.53,54.52 100.91,54.44 103.17,51.86 C106.54,48.02 106.87,44.76 105.05,43.55 Z" fill="#E0FEAC"/>
  <path d="M72.43,45.73 C71.59,46.15 68.45,49.83 69.38,57.15 C70.35,64.72 75.76,69.7 84.72,70.35 C96.19,71.17 102.64,62.77 103.52,61.25 C104.4,59.73 106.16,56.39 104.93,55.28 C103.7,54.17 96.03,53.7 87.19,50.95 C77.26,47.85 74.3,44.79 72.43,45.73 Z" fill="#FE2A19"/>
  <path d="M76.4,49.99 C75.15,50.61 73.92,61.72 83.73,64.97 C92.18,67.77 98.46,58.47 97.82,57.23 C97.18,55.99 93.37,56.41 87.08,54.18 C80.78,51.94 77.38,49.51 76.4,49.99 Z" fill="#CB1C35"/>
  <path d="M80.68,55.89 C80.97,57.36 82.34,59.15 85.45,60.48 C87.92,61.54 90.57,61.07 91.69,60.6 C92.81,60.13 92.38,55.67 91.87,55.54 C90.28,55.13 85.46,53.48 83.99,52.89 C83.04,52.51 80.37,54.31 80.68,55.89 Z" fill="#FE6261"/>
  <path d="M80.12,56 C80.07,55.08 78.58,54.77 77.54,55.11 C76.17,55.55 76.57,56.92 77.34,57.15 C78.71,57.57 80.17,56.91 80.12,56 Z" fill="#F7CA76"/>
  <path d="M83.13,59.84 C82.41,59.27 81.19,60.18 80.76,61.19 C80.19,62.51 81.48,63.12 82.16,62.69 C83.38,61.93 83.84,60.4 83.13,59.84 Z" fill="#F7CA76"/>
  <path d="M68.86,76.25 C68.86,76.25 69.13,74.44 67.81,71.82 C67.24,70.69 64.99,68.44 66.68,66.5 C68.37,64.57 74.09,65.78 75.94,66.18 C77.79,66.58 80.77,66.5 81.9,65.37 C83.03,64.24 83.83,59.57 87.94,58.44 C92.18,57.28 94.18,61.02 95.91,62.55 C97.28,63.76 99.29,64.24 102.11,63.27 C104.93,62.3 104.12,66.01 104.12,66.01 L100.82,73.34 L68.86,76.25 Z" fill="#86C82C"/>
  <path d="M17.89,65.95 C17.89,65.95 14.91,60.23 12.98,51.45 C11.05,42.67 11.2,39.79 13.22,39.13 C16.68,38 19.02,42.19 20.23,41.95 C21.44,41.71 21.68,36.63 25.22,35.83 C28.76,35.02 30.13,38.25 31.9,41.15 C33.67,44.05 36.97,51.78 36.97,51.78 C36.97,51.78 40.11,50.33 42.85,51.78 C45.59,53.23 48.25,57.58 49.37,60.64 C50.5,63.7 51.6,66.39 51.6,66.39 C51.6,66.39 55.47,67.12 59.03,69.26 C63.06,71.68 64.99,76.43 64.99,76.43 L45.19,77.7 C45.19,77.7 21.19,69.08 20.95,68.68 C20.7,68.28 17.64,65.62 17.89,65.95 Z" fill="#86C82C"/>
  <path d="M21.03,69.09 C21.03,69.09 19.82,66.19 20.22,62.49 C20.62,58.79 22.35,56.43 25.25,56.43 C27.51,56.43 31.41,57.9 35.2,63.21 C38.99,68.52 39.47,73.36 39.47,73.36 L23.44,71.27 L21.03,69.09 Z" fill="#2D792A"/>
  <path d="M22.07,68.04 C22.07,68.04 20.5,61.65 22.47,60.15 C23.84,59.1 25.93,59.43 29.72,63.61 C34.04,68.39 34.95,72.55 34.95,72.55 L22.07,68.04 Z" fill="#E7FCAE"/>
  <path d="M41.51,74.12 L43.36,74.28 C43.36,74.28 44.41,69.37 48.51,67.35 C52.46,65.42 56.64,67.03 56.64,67.03 L57.28,64.69 L52.93,62.92 L47.05,64.13 C47.05,64.13 41.73,68.96 41.73,69.2 C41.73,69.44 41.51,73.88 41.51,74.12 Z" fill="#FFFFFF"/>
  <path d="M38.3,74.83 C38.3,74.59 38.79,67.83 44.5,64.04 C51.75,59.23 57.75,63.32 57.75,63.32 L57,65.63 C57,65.63 50.76,62.9 45.95,67.02 C42,70.4 41.12,75.48 41.12,75.48 L38.3,74.83 Z" fill="#D2608C"/>
  <path d="M67.45,108.67 C102.22,108.56 114.02,80.47 116.83,70.07 C118.67,63.26 119.33,57.07 119.33,57.07 L107.13,70.81 C107.13,70.81 68.87,78.15 67.59,78.15 C66.31,78.15 45.17,76.45 45.17,76.45 L23.45,71.26 L8.56,56.84 C8.56,56.84 8.84,65.81 11.25,72.62 C13.11,77.87 23.88,108.81 67.45,108.67 Z" fill="#F6F6F6"/>
  <path d="M64.04,80.43 C80.64,80.64 104.9,76.32 113.99,67.23 C119.81,61.41 119.38,56.16 119.38,56.16 C119.38,56.16 108.88,75.99 63.89,75.32 C25.73,74.75 8.53,56.79 8.53,56.79 C8.53,56.79 9.55,62.97 14.23,66.81 C25.3,75.86 41.9,80.14 64.04,80.43 Z" fill="#FFFFFF"/>
  <path d="M20.46,78.82 C18.51,80.65 20.62,85.3 25.38,89.49 C30.14,93.68 34.9,97.04 37.28,94.66 C39.75,92.19 33.92,86.29 30.63,83.42 C27.34,80.55 23,76.44 20.46,78.82 Z" fill="#FFFFFF"/>
</svg>
